!!!OTL: Maria wollt' auswandern (298a), S. 616f
!!!id: T0488
**kern
*clefG2
*k[f#]
*G:
{4d
=1
4g
4g
4a
4dd
=2
4.b
8a
4g}
=3
{4b
=4
4a
4g
8a
8g
8f#
8e
=5
4d}
2r
=6
{4d
=7
4g
4g
8a
8a
4dd
=8
4dd}
2r
=9
{8cc
8b
=10
8a
8g
8g
8a
4b
4a
=11
4g}
2r
==
*-
!!!minrhy: 8
!!!meters: 4/4 ]  ZZ[4
!!!cut: Maria wollt' auswandern (298a), S. 616f
!!!reg: Luxemburg
!!!trd: Singendes Volk, Esch-Alzette 1937 posth.
!!!rhy1: X_  X_X_X_X_  X_.XX_
!!!rhy2: X_  X_X_XXXX  X_0__
!!!key: T0488  08  G 4/4 ]  ZZ[4
!!!mod: HEPTATONIK IONISCH]  AMBITUS[8
!!!kad: 1-551
!!!akz: 1231_22-5_125_231_
!!!fot: 'a__b__aw_c__
!!!for: 'a__b__c__d__
!!!fok: '^a_\__/__\__
!! PHRAS[AUFTAKTIG]
!!!fkt: geistliches Lied
!!!bem1: Reuland, fff Katharina Prim, 1910;
!!!bem2: (298b)- Beidweiler, hhh Johann Didier, 4.1.1931;
!!!bem3: (298c)- Junglinster, fff Schwester des Verfassers, um 1890
!! THILL, Mathias
!! PR[15] 2K[11] 2G[19] 3K[4] 3G[0] 4A[4] 4Ü[0] 5A[0] 6K[0] 6G[0]
!! 7K[0] 7G[0] 8A[0] MEHR[0] SI[37] ABS[27] SR[30] SP[7]
!! ST[11] 2k[15] 2g[26] 3k[0] 3g[0] 4d[7] 4ü[0] 5d[0] 6k[0] 6g[0]
!! 7k[0] 7g[0] 8d[0] mehr[0] si[48] dm[-11] sr[41] sp[7]
!! 1F[17] 2F[59] 3F[21] 4F[0] LF[0] 2P[3] 3P[0] 4P[0] TRI[0] DF[4] AB[29]
!! TF[0] U3K[0] U3[0] U4[0] U4Ü[0] U5[0] U6K[0] U6[0] U7K[0] U7[0]
!! N1[4] N2K[0] N2[4] N3K[11] N3[0] N4[11] N4Ü[0] N5[29] N6K[7] N6[7]
!!!n7k: 14] N7[0] O1[14] O2K[0] O2[0] O3K[0] O3[0] HÖ[0
